icon-themes/breeze_svg/cmd/sc_connectorcurve.svg

<svg viewBox="0 0 16 16" xmlns="http://www.w3.org/2000/svg">/&gt;<path d="m3.5 2c-.82844 0-1.5.67158-1.5 1.5 0 .8285.67156 1.5 1.5 1.5.65584 0 1.20241-.41358 1.40625-1h.09375 6.5c.82843 0 1.5.67158 1.5 1.5 0 .8285-.67157 1.5-1.5 1.5h-7c-1.38071 0-2.5 1.11933-2.5 2.5 0 1.38075 1.11929 2.5 2.5 2.5h6.5.09375c.20384.58641.75041 1 1.40625 1 .82843 0 1.5-.67157 1.5-1.5s-.67157-1.5-1.5-1.5c-.65584 0-1.20241.41359-1.40625 1h-.09375-6.5c-.82843 0-1.5-.6715-1.5-1.5 0-.82842.67157-1.5 1.5-1.5h7c1.38071 0 2.5-1.11925 2.5-2.5 0-1.38067-1.11929-2.5-2.5-2.5h-6.5-.09375c-.20384-.58642-.75041-1-1.40625-1zm0 1c.27614 0 .5.22392.5.5 0 .27617-.22386.5-.5.5s-.5-.22383-.5-.5c0-.27608.22386-.5.5-.5zm9 8c.27614 0 .5.22386.5.5s-.22386.5-.5.5-.5-.22386-.5-.5.22386-.5.5-.5z" fill="#4d4d4d"/></svg>

<svg xmlns="http://www.w3.org/2000/svg" viewBox="0 0 16 16">
     />
 <path 
     style="fill:#4d4d4d" 
     d="M 3.5 2 C 2.67156 2 2 2.67158 2 3.5 C 2 4.3285 2.67156 5 3.5 5 C 4.15584 5 4.70241 4.58642 4.90625 4 L 5 4 L 11.5 4 C 12.32843 4 13 4.67158 13 5.5 C 13 6.3285 12.32843 7 11.5 7 L 4.5 7 C 3.11929 7 2 8.11933 2 9.5 C 2 10.88075 3.11929 12 4.5 12 L 11 12 L 11.09375 12 C 11.29759 12.58641 11.84416 13 12.5 13 C 13.32843 13 14 12.32843 14 11.5 C 14 10.67157 13.32843 10 12.5 10 C 11.84416 10 11.29759 10.41359 11.09375 11 L 11 11 L 4.5 11 C 3.67157 11 3 10.3285 3 9.5 C 3 8.67158 3.67157 8 4.5 8 L 11.5 8 C 12.88071 8 14 6.88075 14 5.5 C 14 4.11933 12.88071 3 11.5 3 L 5 3 L 4.90625 3 C 4.70241 2.41358 4.15584 2 3.5 2 z M 3.5 3 C 3.77614 3 4 3.22392 4 3.5 C 4 3.77617 3.77614 4 3.5 4 C 3.22386 4 3 3.77617 3 3.5 C 3 3.22392 3.22386 3 3.5 3 z M 12.5 11 C 12.77614 11 13 11.22386 13 11.5 C 13 11.77614 12.77614 12 12.5 12 C 12.22386 12 12 11.77614 12 11.5 C 12 11.22386 12.22386 11 12.5 11 z "
     />
 </svg>
